X:259
T:Souvent je m'esbats (Chanson 7)
C:Manuscript de Bayeux (fin XVe)
S:from bay7.MID
R:Chanson
M:4/4
L:1/8
Q:1/4=120
K:F 
V:1
F2 A2 c2 A2 | G2zc2<c2B | AG/2F/2 G2 F4 | c4 c2 cc | 
B3/2A/2 G2 F2zF | B2 c2 d3c | BA/2G/2 A2 G4 | z8 | 
c4 c3c | B3/2A/2 G2 F2zF | B2 c2 d2 c2 | BA/2G/2 A2 G4 | 
z8 | c4 c2 c2 | B3/2A/2 G2 F2zF | B3B AG/2F/2 G2 | F8 |]
V:2
f2 a2 c'2 a2 | g2zc'2<c'2b | ag/2f/2 g2 f4 | z8 | 
z8 | z8 | z8 | g3/2a<ba/2 c'4 | 
z8 | z8 | z8 | z8 | g3/2a<ba/2 c'4 | Z4 |]





